svg/u1fa7c.svg

<svg viewBox="0 0 128 128" xmlns="http://www.w3.org/2000/svg">
  <defs/>
  <path d="M26.603,95.754 L32.917,102.068 L21.024,113.961 L14.709,107.647 L26.603,95.754 Z" fill="#5A96A8"/>
  <path d="M114.545,36.905 L76.505,74.945 Q72.209,79.242 65.785,80.752 L65.683,80.776 L65.58,80.793 Q55.631,82.409 51.413,86.618 L47.187,82.382 Q52.744,76.837 64.512,74.905 Q69.214,73.775 72.275,70.715 L110.315,32.675 Z" fill="#82AEC0"/>
  <path d="M28.02,101.82 L26.24,100.04 C23.98,97.78 23.98,94.12 26.24,91.86 L43.74,74.36 L53.7,84.32 L36.2,101.82 C33.94,104.08 30.28,104.08 28.02,101.82 Z" fill="#82AEC0"/>
  <path d="M15.15,122.87 C14.82,123.22 14.45,123.54 14.02,123.75 C12.55,124.5 10.97,123.39 9.9,122.41 C7.91,120.59 5.96,118.61 4.94,116.11 C4.75,115.64 4.59,115.13 4.74,114.65 C4.85,114.28 5.13,113.98 5.4,113.7 C6.79,112.25 8.32,110.72 10.3,110.4 C11.03,110.28 11.79,110.34 12.5,110.11 C13.5,109.8 14.08,108.64 15.05,108.4 C16.39,108.07 17.57,109.97 18.41,110.76 C19.13,111.44 20.53,112.33 20.45,113.47 C20.35,114.94 18.26,115.61 17.95,117.11 C17.83,117.7 17.95,118.32 17.84,118.92 C17.73,119.54 17.37,120.09 17,120.6 C16.55,121.23 16.07,121.84 15.56,122.42 C15.42,122.57 15.29,122.72 15.15,122.87 Z" fill="#757575"/>
  <path d="M18.43,113.84 C18.68,114.09 18.93,114.34 19.18,114.59 C19.25,114.66 19.33,114.74 19.36,114.84 C19.57,115.67 17.82,116.88 17.09,116.92 C15.81,116.99 14.3,115.95 13.48,115.05 C12.13,113.58 11.51,111.55 12.85,109.94 C13.09,109.65 13.43,109.36 13.8,109.42 C14.04,109.46 14.23,109.64 14.4,109.82 C15.75,111.16 17.09,112.5 18.43,113.84 Z" fill="#424242"/>
  <path d="M78.29,64.97 C78.14,64.79 78,64.6 77.85,64.41 C76.92,63.25 75.77,62.26 74.48,61.53 C73.4,60.92 72.23,60.49 71.21,59.77 C68.18,57.63 67.16,53.52 64.32,51.11 C63.69,50.58 62.97,50.13 62.45,49.49 C60.33,46.91 64.73,42.52 67.34,44.99 C67.86,45.48 68.19,46.12 68.54,46.73 C69.61,48.58 71.26,48.86 72.94,49.88 C74.74,50.98 76.31,52.49 77.46,54.26 C78.87,56.43 79.82,59.13 82.06,60.41 C82.63,60.74 83.28,60.96 83.73,61.45 C84.56,62.37 83.55,63.65 82.95,64.26 L82,65.22 C81.34,65.88 80.03,66.4 79.07,65.74 C78.77,65.53 78.52,65.26 78.29,64.97 Z" fill="#B7855F"/>
  <path d="M95.885,17.165 L57.845,55.205 Q54.785,58.266 53.655,62.968 Q51.723,74.736 46.178,80.293 L41.942,76.067 Q46.151,71.849 47.767,61.9 L47.784,61.797 L47.808,61.695 Q49.318,55.271 53.615,50.975 L91.655,12.935 Z" fill="#82AEC0"/>
  <path d="M71.71,54.49 C71.26,54.1 70.77,53.74 70.26,53.44 C69.63,53.07 69.32,52.33 69.56,51.68 L69.88,50.8 C70.16,50.03 71.06,49.7 71.81,50.13 C72.68,50.62 73.5,51.22 74.25,51.89 C74.89,52.47 74.89,53.45 74.28,53.98 L73.58,54.59 C73.04,55.02 72.26,54.97 71.71,54.49 Z" fill="#E6A467"/>
  <path d="M91.66,12.91 L89.67,14.92 L89.89,23.12 L95.43,17.92 Z" fill="#2F7889"/>
  <path d="M110.83,32.11 L107.56,35.42 C108.95,38.25 108.17,43.24 108.17,43.24 L114.5,37 L110.83,32.11 Z" fill="#2F7889"/>
  <path d="M110.28,34.07 C106.57,31.14 96.09,20.53 91.87,15.42 C89.71,12.8 87.23,7.89 90.5,5.11 C91.88,3.93 93.96,3.68 95.62,4.41 C98.92,5.87 98.82,9.9 100.67,12.5 C102.25,14.73 104.48,16.61 106.43,18.49 C108.65,20.62 110.91,22.71 113.13,24.84 C114.19,25.86 115.07,26.47 116.55,26.87 C118.29,27.34 120.31,27.54 121.63,28.91 C122.32,29.63 122.71,30.58 122.99,31.53 C123.25,32.44 123.42,33.39 123.3,34.33 C122.99,36.81 121.17,37.91 118.86,38.05 C117.01,38.17 113.99,37 110.28,34.07 Z" fill="#B7855F"/>
  <path d="M19.07,103.28 C19.07,103.28 17.97,102.82 17.35,103.43 C16.73,104.04 14.6,106.18 13.92,106.86 C13.24,107.54 12.75,108.33 13.67,110.09 C14.78,112.21 16.73,113.82 18.2,114.61 C19.77,115.45 20.28,115.62 21.47,114.84 C22.65,114.05 24.86,111.59 25.31,111 C25.76,110.41 25.68,109.3 25.68,109.3 C25.68,109.3 24.77,109.77 23.69,109.47 C22.61,109.17 19.55,105.87 19.16,104.89 C18.78,103.92 19.07,103.28 19.07,103.28 Z" fill="#757575"/>
  <path d="M95.09,7.68 C95.02,8.51 94.74,9.32 94.59,10.14 C94.45,10.93 94.42,11.75 94.52,12.55 C94.59,13.13 94.67,13.84 94.2,14.18 C93.78,14.48 93.18,14.27 92.76,13.95 C91.98,13.36 91.48,12.46 91.09,11.57 C90.66,10.59 90.31,9.54 90.34,8.46 C90.37,7.32 91.08,5.36 92.31,4.98 C94.12,4.4 95.23,6.06 95.09,7.68 Z" fill="#E6A467"/>
  <path d="M41.49,80.8 C40.57,79.98 37.24,83.06 33.14,87.16 C29.05,91.25 26.27,94.47 27.14,95.34 C28.01,96.21 31.97,93.24 36.06,89.15 C40.15,85.06 43.29,82.4 41.49,80.8 Z" fill="#B9E4EA"/>
</svg>

<svg viewBox="0 0 128 128" xmlns="http://www.w3.org/2000/svg" xmlns:xlink="http://www.w3.org/1999/xlink">
  <g>
    <g>
      <g>
        <rect fill="#5A96A8" height="16.82" transform="matrix(0.7071 0.7071 -0.7071 0.7071 81.12 13.8714)" width="8.93" x="19.35" y="96.45"/>
        <path d="M112.43,34.79L74.39,72.83 c-2.44,2.44-5.59,4.14-9.29,5.01c0,0-10.9,1.77-15.8,6.66" fill="none" stroke="#82AEC0" stroke-miterlimit="10" stroke-width="5.9835"/>
        <path d="M28.02,101.82l-1.78-1.78c-2.26-2.26-2.26-5.92,0-8.18l17.5-17.5l9.96,9.96l-17.5,17.5 C33.94,104.08,30.28,104.08,28.02,101.82z" fill="#82AEC0"/>
        <path d="M15.15,122.87c-0.33,0.35-0.7,0.67-1.13,0.88c-1.47,0.75-3.05-0.36-4.12-1.34 c-1.99-1.82-3.94-3.8-4.96-6.3c-0.19-0.47-0.35-0.98-0.2-1.46c0.11-0.37,0.39-0.67,0.66-0.95c1.39-1.45,2.92-2.98,4.9-3.3 c0.73-0.12,1.49-0.06,2.2-0.29c1-0.31,1.58-1.47,2.55-1.71c1.34-0.33,2.52,1.57,3.36,2.36c0.72,0.68,2.12,1.57,2.04,2.71 c-0.1,1.47-2.19,2.14-2.5,3.64c-0.12,0.59,0,1.21-0.11,1.81c-0.11,0.62-0.47,1.17-0.84,1.68c-0.45,0.63-0.93,1.24-1.44,1.82 C15.42,122.57,15.29,122.72,15.15,122.87z" fill="#757575"/>
        <path d="M18.43,113.84c0.25,0.25,0.5,0.5,0.75,0.75c0.07,0.07,0.15,0.15,0.18,0.25 c0.21,0.83-1.54,2.04-2.27,2.08c-1.28,0.07-2.79-0.97-3.61-1.87c-1.35-1.47-1.97-3.5-0.63-5.11c0.24-0.29,0.58-0.58,0.95-0.52 c0.24,0.04,0.43,0.22,0.6,0.4C15.75,111.16,17.09,112.5,18.43,113.84z" fill="#424242"/>
        <path d="M78.29,64.97c-0.15-0.18-0.29-0.37-0.44-0.56c-0.93-1.16-2.08-2.15-3.37-2.88 c-1.08-0.61-2.25-1.04-3.27-1.76c-3.03-2.14-4.05-6.25-6.89-8.66c-0.63-0.53-1.35-0.98-1.87-1.62c-2.12-2.58,2.28-6.97,4.89-4.5 c0.52,0.49,0.85,1.13,1.2,1.74c1.07,1.85,2.72,2.13,4.4,3.15c1.8,1.1,3.37,2.61,4.52,4.38c1.41,2.17,2.36,4.87,4.6,6.15 c0.57,0.33,1.22,0.55,1.67,1.04c0.83,0.92-0.18,2.2-0.78,2.81L82,65.22c-0.66,0.66-1.97,1.18-2.93,0.52 C78.77,65.53,78.52,65.26,78.29,64.97z" fill="#B7855F"/>
        <path d="M93.77,15.05L55.73,53.09 c-2.44,2.44-4.14,5.59-5.01,9.29c0,0-1.77,10.9-6.66,15.8" fill="none" stroke="#82AEC0" stroke-miterlimit="10" stroke-width="5.9835"/>
        <path d="M71.71,54.49c-0.45-0.39-0.94-0.75-1.45-1.05c-0.63-0.37-0.94-1.11-0.7-1.76l0.32-0.88 c0.28-0.77,1.18-1.1,1.93-0.67c0.87,0.49,1.69,1.09,2.44,1.76c0.64,0.58,0.64,1.56,0.03,2.09l-0.7,0.61 C73.04,55.02,72.26,54.97,71.71,54.49z" fill="#E6A467"/>
        <polygon fill="#2F7889" points="91.66,12.91 89.67,14.92 89.89,23.12 95.43,17.92 "/>
        <path d="M110.83,32.11l-3.27,3.31c1.39,2.83,0.61,7.82,0.61,7.82L114.5,37L110.83,32.11z" fill="#2F7889"/>
        <path d="M110.28,34.07c-3.71-2.93-14.19-13.54-18.41-18.65c-2.16-2.62-4.64-7.53-1.37-10.31 c1.38-1.18,3.46-1.43,5.12-0.7c3.3,1.46,3.2,5.49,5.05,8.09c1.58,2.23,3.81,4.11,5.76,5.99c2.22,2.13,4.48,4.22,6.7,6.35 c1.06,1.02,1.94,1.63,3.42,2.03c1.74,0.47,3.76,0.67,5.08,2.04c0.69,0.72,1.08,1.67,1.36,2.62c0.26,0.91,0.43,1.86,0.31,2.8 c-0.31,2.48-2.13,3.58-4.44,3.72C117.01,38.17,113.99,37,110.28,34.07z" fill="#B7855F"/>
        <path d="M19.07,103.28c0,0-1.1-0.46-1.72,0.15s-2.75,2.75-3.43,3.43c-0.68,0.68-1.17,1.47-0.25,3.23 c1.11,2.12,3.06,3.73,4.53,4.52c1.57,0.84,2.08,1.01,3.27,0.23c1.18-0.79,3.39-3.25,3.84-3.84s0.37-1.7,0.37-1.7 s-0.91,0.47-1.99,0.17s-4.14-3.6-4.53-4.58C18.78,103.92,19.07,103.28,19.07,103.28z" fill="#757575"/>
      </g>
      <path d="M95.09,7.68c-0.07,0.83-0.35,1.64-0.5,2.46c-0.14,0.79-0.17,1.61-0.07,2.41 c0.07,0.58,0.15,1.29-0.32,1.63c-0.42,0.3-1.02,0.09-1.44-0.23c-0.78-0.59-1.28-1.49-1.67-2.38c-0.43-0.98-0.78-2.03-0.75-3.11 c0.03-1.14,0.74-3.1,1.97-3.48C94.12,4.4,95.23,6.06,95.09,7.68z" fill="#E6A467"/>
    </g>
    <path d="M41.49,80.8c-0.92-0.82-4.25,2.26-8.35,6.36c-4.09,4.09-6.87,7.31-6,8.18 c0.87,0.87,4.83-2.1,8.92-6.19S43.29,82.4,41.49,80.8z" fill="#B9E4EA"/>
  </g>
</svg>
